resources/svg/snapchat.svg

<svg width="15" height="15" viewBox="0 0 15 15" fill="none" xmlns="http://www.w3.org/2000/svg">
<path d="M7.5 0C6.24898 0 5.14443 0.475716 4.36453 1.47856C3.66908 2.37213 3.27515 4.19057 3.20982 5.70842L3.13065 5.72056L3.10755 5.72414C2.99077 5.74199 2.85156 5.76342 2.70838 5.79199C2.20427 5.89485 1.25016 6.16842 1.03637 7.26626C0.936082 7.77912 1.04892 8.22699 1.30427 8.57413C1.53322 8.88412 1.84333 9.06911 2.07163 9.18482C2.16921 9.23322 2.26801 9.27872 2.36789 9.32126C2.14026 9.99411 1.74107 10.687 1.29899 11.3141C0.885283 11.9012 0.994817 12.6448 1.2086 13.1298C1.42238 13.6155 1.82632 13.5936 2.5 13.625C2.88204 13.6429 3.28255 13.685 3.68108 13.7636C3.86121 13.7993 4.07367 13.8779 4.3376 13.9957C4.49116 14.0651 4.64381 14.1367 4.79551 14.2107C4.9189 14.2707 5.0502 14.3336 5.2013 14.4036C5.82153 14.6922 6.58362 15 7.42819 15C8.27276 15 9.03485 14.6922 9.65508 14.4036C9.80618 14.3336 9.93682 14.2707 10.0609 14.2107L10.0884 14.1974C10.2338 14.1274 10.3704 14.0616 10.5188 13.9957C10.7827 13.8779 10.9952 13.8 11.1753 13.7643C11.5738 13.6857 11.9743 13.6429 12.3557 13.625C13.03 13.5936 13.5532 13.6155 13.7676 13.1298C13.9814 12.6448 14.0909 11.9012 13.6772 11.3141C13.2378 10.6913 12.8406 10.0034 12.6123 9.33482C12.7099 9.2941 12.826 9.24554 12.9422 9.1884C13.1764 9.07483 13.5037 8.88696 13.7326 8.56196C13.9985 8.18482 14.0744 7.70912 13.9227 7.19555C13.6198 6.17342 12.7403 5.90057 12.225 5.79271C12.0857 5.76343 11.9518 5.742 11.8396 5.72486L11.8264 5.72272L11.7657 5.71271C11.6958 4.28915 11.323 2.48785 10.6434 1.58071C9.87799 0.560005 8.78005 0 7.5 0Z" fill="black"/>
</svg>

<svg viewBox="0 0 15 15" fill="none" xmlns="http://www.w3.org/2000/svg" fill="currentColor"><path d="M7.5 0C6.249 0 5.144.476 4.365 1.479c-.696.893-1.09 2.712-1.155 4.23l-.08.012-.022.003c-.117.018-.256.04-.4.068-.504.103-1.458.376-1.672 1.474-.1.513.013.961.268 1.308.23.31.54.495.768.61.097.05.196.095.296.137-.228.673-.627 1.366-1.069 1.993-.414.587-.304 1.33-.09 1.816.213.486.617.464 1.291.495.382.018.783.06 1.181.139.18.035.393.114.657.232.153.07.306.14.458.215.123.06.254.123.405.193.62.288 1.383.596 2.227.596.845 0 1.607-.308 2.227-.596.151-.07.282-.133.406-.193l.027-.014a16.8 16.8 0 01.43-.201c.265-.118.477-.196.657-.232a8.09 8.09 0 011.18-.139c.675-.031 1.198-.01 1.413-.495.213-.485.323-1.229-.09-1.816-.44-.623-.837-1.31-1.066-1.98a4.72 4.72 0 00.33-.146c.234-.113.562-.301.79-.626.267-.377.342-.853.19-1.366-.302-1.023-1.182-1.295-1.697-1.403a6.404 6.404 0 00-.385-.068l-.014-.002-.06-.01c-.07-1.424-.443-3.225-1.123-4.132C9.878.56 8.78 0 7.5 0z" fill="currentColor"/></svg>
